X: 18413
T: Hunter's Moon
R: waltz
M: 3/4
K: Edorian
B,D|"Em"E2>A2 AB|"D"A2 [DA]2 [DA][A,B]|"D"[A,A]2 {G}F2- (F/G/F/E/|"Bm"D2)>B,2 B,D|"Em"E2>"G2"A2 (3ABe|
"D"d2>A2 e<f|"D"~fe d2 ~dc|"Bm"B4 Bc|"G"d2>c2 de|"G"d2 c2 B>(c/B/4|"F#m"A2) F2>A2|"G"B3 ((3c/B/A/ F2)|
"Em"{E/F/}E4 AB|"D"A2 D2 (3FED|"Em"E6|"Em"E4 (3A,B,D||"Em"E4 AB|{A/B/}A2 [DA]2 [DA]B|"D"A2 F2- F/(G/F/E/|
"Bm"D2)>B,2- (3B,B,D|"Em"E2>A2 (3ABe|"D"d2>A2 {/e}f2|"D"~fe d2 ~dc|"Bm"B4 Bc|"G"d2>c2 de|
"G"d2 c2 B(c/B/|"F#m"A2) F2>A2|"G"B2>B2 dF|"Em"E4 AB|"D"A2 [DA]2 (3FED|"Em"E4- EE|"Em"E4 [EA]E||
"A"c2>c2 B<A|"Em"B2 "D/F"E2- (3EFA|"G"B2>A2 (3EFB|"Bm"A2 D2 (3FED|"Em"E2>A2 (3ABe||"D"d2>d2 ef|"D"~fe d2 ~dc|
"Bm"B4 [Bf]d|"G"d2>c2 de|"G"d2 c2 B2|"F#m"A2 F2- (3FED|"G"B2{Bc}B B AF|"Em"{EF}E4 AB|"D"A2 D2 (3FED|
"Em"E4 ([B,E]2|[B,E]2 [B,)E]E (3A,B,D||"Em"E2>d2- (3dcB|"D"A2 [DA]2 [DA][DB]|"D"A2 F3 (3(G/F/E/|D3) B,2 D|
"Em"E2>A2- "G2"(3ABe|"D"d2>d2 ef|"D"~fe d2 ~dc|"Bm"B4 Bc|"G"d2>c2 de|"G"d2 c2 B2|"F#m"A2 F2>A2|
"G"B2>B2 AF|"Em"E4 {AB}AB|"D"A2 [DA]2 (3FED|"Em"E6|"Em"E4 AE|c3 c/d/ (3cBA|"Em"B2 "D/F"E2 D/F/A/D/|
"G"B2>E2 (3EFB|"Bm"A2 D2 (3FED|"Em"E2>E2 ((3ABe)||"D"d2>A2 f2|"D"~!4!fe d2 ~dc|"Bm"B4 BA|"A"[EA]4 (3ABc|
"G"d2 B2- (B(3B/c/B/|"F#m"A2) F2- (3FED|"G"B2>B2 AF|"Em"E4 AB|"D"A2 D2 (3FED|"Em"E2>E2 EE|"Em"E4 [EA]E||
"A"[Ec]2 (d2 (3cBA|"Em"B2) "D"E2 (3FAD|"G"[DB]2>A2 (3EFB|"Bm"A2 "D"D2- (3DFF|"G"G2>F2 (3FED|"Bm"d4 ef|"Bm"~fe d2 "A"~dc|
"G"B4- (3BBA|"A"A4- (3ABc|"G"d2 B2>B2|"F#m"A2 F2- (3FED|"G"B2>B2 AF|"Em"{EF}E4 AB|"Dd"A2 D2 (3FED|
"Em"E4- EE|"D2"E4- (3EBE|"Cmaj7(#4)"B6|"Gmaj7/B"{/D}E4 B,D|[M:4/4] E2 z2 z4||

